remix/Document/file-paper-fill.svg

<svg viewBox="0 0 24 24" fill="currentColor" xmlns="http://www.w3.org/2000/svg"><path d="M3 15V3C3 2.44772 3.44772 2 4 2H20C20.5523 2 21 2.44772 21 3V19C21 20.6569 19.6569 22 18 22H4C2.34315 22 1 20.6569 1 19V17H17V19C17 19.5523 17.4477 20 18 20C18.5523 20 19 19.5523 19 19V15H3Z"/></svg>

<svg viewBox="0 0 24 24" xmlns="http://www.w3.org/2000/svg"><path fill="none" d="M0 0h24v24H0Z"/><path d="M3 15V3v0c0-.56.44-1 1-1h16v0c.55 0 1 .44 1 1v16 0c0 1.65-1.35 3-3 3H4v0c-1.66 0-3-1.35-3-3v-2h16v2 0c0 .55.44 1 1 1 .55 0 1-.45 1-1v-4H3Z"/></svg>
